;FLAVOR:Marlin
;TIME:1194
;Filament used: 1.46473m
;Layer height: 0.3
;MINX:101.836
;MINY:101.948
;MINZ:0.36
;MAXX:132.81
;MAXY:133.153
;MAXZ:21.36
;Generated with Cura_SteamEngine 4.6.2
M140 S60
M105
M190 S60
M104 S200
M105
M109 S200
M82 ;absolute extrusion mode
; Ender 3 Custom Start G-code
G92 E0 ; Reset Extruder
G28 ; Home all axes
G1 Z2.0 F3000 ; Move Z Axis up little to prevent scratching of Heat Bed
G1 X0.1 Y20 Z0.3 F5000.0 ; Move to start position
G1 X0.1 Y200.0 Z0.3 F1500.0 E15 ; Draw the first line
G1 X0.4 Y200.0 Z0.3 F5000.0 ; Move to side a little
G1 X0.4 Y20 Z0.3 F1500.0 E30 ; Draw the second line
G92 E0 ; Reset Extruder
G1 Z2.0 F3000 ; Move Z Axis up little to prevent scratching of Heat Bed
G1 X5 Y20 Z0.3 F5000.0 ; Move over to prevent blob squish
G92 E0
G92 E0
G1 F2700 E-5
;LAYER_COUNT:66
;LAYER:-6
M107
G0 F9000 X104.279 Y104.227 Z0.36
;TYPE:SUPPORT-INTERFACE
G1 F2700 E0
G1 F1350 X104.481 Y104.04 E0.03296
G1 X104.711 Y103.852 E0.06853
G1 X104.939 Y103.688 E0.10216
G1 X105.198 Y103.526 E0.13874
G1 X105.437 Y103.398 E0.1712
G1 X105.712 Y103.271 E0.20747
G1 X105.973 Y103.169 E0.24102
G1 X106.276 Y103.074 E0.27904
G1 X106.497 Y103.02 E0.30628
G1 X106.853 Y102.96 E0.34951
G1 X107.407 Y102.91 E0.41611
G1 X107.629 Y102.9 E0.44272
G1 X127.55 Y102.904 E2.82799
G1 X127.927 Y102.928 E2.87322
G1 X128.225 Y102.965 E2.90918
G1 X128.509 Y103.02 E2.94382
G1 X128.8 Y103.096 E2.97983
G1 X129.058 Y103.18 E3.01232
G1 X129.337 Y103.291 E3.04827
G1 X129.595 Y103.413 E3.08244
G1 X129.853 Y103.556 E3.11776
G1 X130.092 Y103.708 E3.15168
G1 X130.339 Y103.89 E3.18841
G1 X130.54 Y104.059 E3.21986
G1 X130.773 Y104.279 E3.25823
G1 X130.96 Y104.481 E3.29119
G1 X131.148 Y104.711 E3.32675
G1 X131.312 Y104.939 E3.36038
G1 X131.474 Y105.198 E3.39696
G1 X131.602 Y105.437 E3.42942
G1 X131.729 Y105.712 E3.46569
G1 X131.831 Y105.973 E3.49925
G1 X131.926 Y106.276 E3.53727
G1 X131.98 Y106.497 E3.56451
G1 X132.04 Y106.853 E3.60774
G1 X132.09 Y107.407 E3.67434
G1 X132.1 Y107.629 E3.70095
G1 X132.096 Y127.55 E6.08622
G1 X132.072 Y127.927 E6.13145
G1 X132.035 Y128.225 E6.16741
G1 X131.98 Y128.509 E6.20204
G1 X131.904 Y128.8 E6.23805
G1 X131.82 Y129.058 E6.27054
G1 X131.709 Y129.337 E6.3065
G1 X131.587 Y129.595 E6.34067
G1 X131.444 Y129.853 E6.37599
G1 X131.292 Y130.092 E6.4099
G1 X131.119 Y130.327 E6.44484
G1 X130.938 Y130.544 E6.47868
G1 X130.724 Y130.77 E6.51594
G1 X130.519 Y130.96 E6.54941
G1 X130.289 Y131.148 E6.58498
G1 X130.061 Y131.312 E6.61861
G1 X129.802 Y131.474 E6.65519
G1 X129.563 Y131.602 E6.68765
G1 X129.288 Y131.729 E6.72392
G1 X129.027 Y131.831 E6.75747
G1 X128.724 Y131.926 E6.79549
G1 X128.503 Y131.98 E6.82273
G1 X128.147 Y132.04 E6.86596
G1 X127.593 Y132.09 E6.93257
G1 X127.371 Y132.1 E6.95917
G1 X107.576 Y132.1 E9.32936
G1 X107.073 Y132.072 E9.38968
G1 X106.775 Y132.035 E9.42563
G1 X106.491 Y131.98 E9.46027
G1 X106.2 Y131.904 E9.49628
G1 X105.94 Y131.819 E9.52904
G1 X105.663 Y131.709 E9.56472
G1 X105.404 Y131.586 E9.59905
G1 X105.147 Y131.444 E9.63421
G1 X104.908 Y131.292 E9.66812
G1 X104.661 Y131.11 E9.70486
G1 X104.46 Y130.941 E9.7363
G1 X104.227 Y130.721 E9.77467
G1 X104.04 Y130.519 E9.80763
G1 X103.848 Y130.284 E9.84397
G1 X103.688 Y130.061 E9.87683
G1 X103.526 Y129.802 E9.91341
G1 X103.398 Y129.563 E9.94587
G1 X103.271 Y129.288 E9.98214
G1 X103.169 Y129.027 E10.0157
G1 X103.074 Y128.724 E10.05372
G1 X103.018 Y128.495 E10.08195
G1 X102.96 Y128.147 E10.12419
G1 X102.91 Y127.593 E10.19079
G1 X102.9 Y127.371 E10.2174
G1 X102.904 Y107.45 E12.60267
G1 X102.928 Y107.073 E12.6479
G1 X102.965 Y106.775 E12.68386
G1 X103.02 Y106.491 E12.7185
G1 X103.096 Y106.2 E12.75451
G1 X103.18 Y105.942 E12.787
G1 X103.291 Y105.663 E12.82295
G1 X103.413 Y105.405 E12.85712
G1 X103.559 Y105.142 E12.89314
G1 X103.708 Y104.908 E12.92635
G1 X103.89 Y104.661 E12.96309
G1 X104.059 Y104.46 E12.99453
G1 X104.279 Y104.227 E13.0329
G0 F9000 X104 Y104.53
G1 F1350 X104 Y130.47 E16.13887
G0 F9000 X105.6 Y131.679
G1 F1350 X105.6 Y103.322 E19.53424
G0 F9000 X107.2 Y102.928
G1 F1350 X107.2 Y132.079 E23.02467
G0 F9000 X108.8 Y132.1
G1 F1350 X108.8 Y102.901 E26.52086
G0 F9000 X110.4 Y102.901
G1 F1350 X110.4 Y132.1 E30.01705
G0 F9000 X112 Y132.1
G1 F1350 X112 Y102.901 E33.51323
G0 F9000 X113.6 Y102.902
G1 F1350 X113.6 Y132.1 E37.0093
G0 F9000 X115.2 Y132.1
G1 F1350 X115.2 Y102.902 E40.50536
G0 F9000 X116.8 Y102.902
G1 F1350 X116.8 Y132.1 E44.00143
G0 F9000 X118.4 Y132.1
G1 F1350 X118.4 Y102.903 E47.49738
G0 F9000 X120 Y102.903
G1 F1350 X120 Y132.1 E50.99332
G0 F9000 X121.6 Y132.1
G1 F1350 X121.6 Y102.903 E54.48927
G0 F9000 X123.2 Y102.904
G1 F1350 X123.2 Y132.1 E57.98509
G0 F9000 X124.8 Y132.1
G1 F1350 X124.8 Y102.904 E61.48092
G0 F9000 X126.4 Y102.904
G1 F1350 X126.4 Y132.1 E64.97675
G0 F9000 X128 Y132.054
G1 F1350 X128 Y102.938 E68.46299
G0 F9000 X129.6 Y103.416
G1 F1350 X129.6 Y131.583 E71.83561
G0 F9000 X131.2 Y130.217
G1 F1350 X131.2 Y104.784 E74.88087
G0 F300 X131.2 Y104.784 Z0.81
G0 F9000 X131.979 Y106.496
;TIME_ELAPSED:34.596245
;LAYER:-5
M140 S60
;TYPE:SUPPORT
G1 F1350 X131.925 Y106.276 E74.91477
G1 X131.83 Y105.972 E74.96244
G1 X131.728 Y105.712 E75.00425
G1 X131.601 Y105.436 E75.04972
G1 X131.473 Y105.198 E75.09017
G1 X131.311 Y104.938 E75.13602
G1 X131.147 Y104.711 E75.17793
G1 X130.959 Y104.48 E75.22251
G1 X130.772 Y104.278 E75.26371
G1 X130.538 Y104.059 E75.31168
G1 X130.338 Y103.889 E75.35096
G1 X130.091 Y103.707 E75.39688
G1 X129.852 Y103.556 E75.4392
G1 X129.594 Y103.412 E75.48342
G1 X129.336 Y103.29 E75.52613
G1 X129.057 Y103.18 E75.57102
G1 X128.799 Y103.096 E75.61163
G1 X128.508 Y103.019 E75.65668
G1 X128.468 Y103.012 E75.66276
G1 X131.985 Y106.529 E76.40719
G1 X132.038 Y106.853 E76.45633
G1 X132.088 Y107.406 E76.53943
G1 X132.099 Y107.629 E76.57285
G1 X132.099 Y108.057 E76.63691
G1 X126.945 Y102.903 E77.72784
G1 X125.531 Y102.903 E77.93947
G1 X132.099 Y109.472 E79.3298
G1 X132.099 Y110.886 E79.54144
G1 X124.117 Y102.903 E81.23106
G1 X122.702 Y102.903 E81.44284
G1 X132.098 Y112.299 E83.43166
G1 X132.098 Y113.714 E83.64344
G1 X121.287 Y102.903 E85.93177
G1 X119.873 Y102.903 E86.1434
G1 X132.098 Y115.127 E88.73092
G1 X132.098 Y116.541 E88.94255
G1 X118.458 Y102.902 E91.82957
G1 X117.044 Y102.902 E92.0412
G1 X132.097 Y117.955 E95.22742
G1 X132.097 Y119.369 E95.43905
G1 X115.63 Y102.902 E98.92456
G1 X114.215 Y102.901 E99.13634
G1 X132.097 Y120.783 E102.92136
G1 X132.096 Y122.197 E103.13299
G1 X112.801 Y102.901 E107.2172
G1 X111.386 Y102.901 E107.42898
G1 X132.096 Y123.611 E111.81259
G1 X132.096 Y125.024 E112.02407
G1 X109.972 Y102.901 E116.70687
G1 X108.557 Y102.901 E116.91865
G1 X132.096 Y126.439 E121.90096
G1 X132.095 Y127.55 E122.06724
G1 X132.077 Y127.835 E122.10998
G1 X107.174 Y102.931 E127.38121
G1 X106.852 Y102.96 E127.4296
G1 X106.495 Y103.019 E127.48376
G1 X106.275 Y103.073 E127.51766
G1 X105.991 Y103.163 E127.56225
G1 X131.836 Y129.008 E133.03277
G1 X131.819 Y129.057 E133.04053
G1 X131.708 Y129.336 E133.08547
G1 X131.586 Y129.594 E133.12819
G1 X131.443 Y129.852 E133.17234
G1 X131.374 Y129.96 E133.19152
G1 X105.039 Y103.625 E138.76575
G1 X104.938 Y103.688 E138.78356
G1 X104.71 Y103.852 E138.8256
G1 X104.479 Y104.04 E138.87018
G1 X104.278 Y104.227 E138.91127
G1 X104.253 Y104.253 E138.91666
G1 X130.746 Y130.746 E144.52434
G1 X130.724 Y130.769 E144.5291
G1 X130.519 Y130.959 E144.57093
G1 X130.288 Y131.147 E144.61551
G1 X130.06 Y131.311 E144.65755
G1 X129.959 Y131.374 E144.67536
G1 X103.623 Y105.037 E150.24991
G1 X103.558 Y105.141 E150.26827
G1 X103.412 Y105.404 E150.31329
G1 X103.29 Y105.662 E150.356
G1 X103.179 Y105.941 E150.40094
G1 X103.162 Y105.991 E150.40885
G1 X129.007 Y131.835 E155.87926
G1 X128.723 Y131.925 E155.92385
G1 X128.503 Y131.979 E155.95775
G1 X128.146 Y132.038 E156.01191
G1 X127.825 Y132.067 E156.06015
G1 X102.922 Y107.164 E161.33127
G1 X102.903 Y107.449 E161.37402
G1 X102.903 Y108.559 E161.54016
G1 X126.442 Y132.098 E166.52257
G1 X125.027 Y132.098 E166.73435
G1 X102.903 Y109.974 E171.41725
G1 X102.903 Y111.388 E171.62889
G1 X123.613 Y132.098 E176.0125
G1 X122.199 Y132.098 E176.22413
G1 X102.902 Y112.801 E180.30865
G1 X102.902 Y114.216 E180.52044
G1 X120.785 Y132.098 E184.30556
G1 X119.37 Y132.098 E184.51734
G1 X102.901 Y115.629 E188.00327
G1 X102.901 Y117.043 E188.21491
G1 X117.956 Y132.098 E191.40154
G1 X116.542 Y132.098 E191.61318
G1 X102.901 Y118.458 E194.50041
G1 X102.901 Y119.871 E194.71189
G1 X115.128 Y132.098 E197.29994
G1 X113.714 Y132.098 E197.51157
G1 X102.901 Y121.285 E199.80032
G1 X102.901 Y122.699 E200.01195
G1 X112.299 Y132.098 E202.0013
G1 X110.885 Y132.098 E202.21293
G1 X102.9 Y124.113 E203.90308
G1 X102.9 Y125.527 E204.11472
G1 X109.471 Y132.098 E205.50558
G1 X108.057 Y132.098 E205.71721
G1 X102.9 Y126.941 E206.80877
G1 X102.9 Y127.37 E206.87298
G1 X102.91 Y127.592 E206.90624
G1 X102.96 Y128.146 E206.9895
G1 X103.014 Y128.469 E207.03851
G1 X106.531 Y131.987 E207.78305
G1 X106.49 Y131.979 E207.7893
G1 X106.199 Y131.902 E207.83435
G1 X105.94 Y131.818 E207.87511
G1 X105.662 Y131.708 E207.91985
G1 X105.404 Y131.585 E207.96263
G1 X105.147 Y131.443 E208.00658
G1 X104.907 Y131.291 E208.0491
G1 X104.66 Y131.109 E208.09502
G1 X104.46 Y130.939 E208.13431
G1 X104.226 Y130.72 E208.18227
G1 X104.04 Y130.518 E208.22337
G1 X103.847 Y130.283 E208.26889
G1 X103.688 Y130.06 E208.30988
G1 X103.526 Y129.8 E208.35573
G1 X103.398 Y129.562 E208.39617
G1 X103.271 Y129.287 E208.44151
G1 X103.169 Y129.026 E208.48345
G1 X103.073 Y128.723 E208.53102
G1 X103.018 Y128.494 E208.56627
G0 F300 X103.018 Y128.494 Z1.11
G0 F9000 X102.709 Y127.602
;TIME_ELAPSED:75.777093
;LAYER:-4
;TYPE:SUPPORT-INTERFACE
G1 F1800 X102.744 Y128 E208.58621
G1 X132.264 Y128 E210.05896
G1 X132.234 Y128.25 E210.07153
G1 X132.205 Y128.4 E210.07915
G1 X102.798 Y128.4 E211.54627
G1 X102.821 Y128.535 E211.5531
G1 X102.882 Y128.784 E211.56589
G1 X102.887 Y128.8 E211.56673
G1 X132.111 Y128.8 E213.02472
G1 X132.099 Y128.846 E213.02709
G1 X132.006 Y129.131 E213.04205
G1 X131.978 Y129.2 E213.04576
G1 X103.02 Y129.2 E214.49048
G1 X103.081 Y129.358 E214.49893
G1 X103.193 Y129.6 E214.51224
G1 X131.804 Y129.6 E215.93965
G1 X131.757 Y129.701 E215.9452
G1 X131.622 Y129.944 E215.95907
G1 X131.586 Y130 E215.96239
G1 X103.414 Y130 E217.3679
G1 X103.525 Y130.178 E217.37837
G1 X103.684 Y130.4 E217.39199
G1 X131.312 Y130.4 E218.77036
G1 X131.265 Y130.464 E218.77432
G1 X131.092 Y130.672 E218.78781
G1 X130.969 Y130.8 E218.79667
G1 X104.027 Y130.8 E220.14081
G1 X104.098 Y130.876 E220.146
G1 X104.313 Y131.079 E220.16075
G1 X104.456 Y131.2 E220.1701
G1 X130.54 Y131.2 E221.47144
G1 X130.408 Y131.308 E221.47994
G1 X130.177 Y131.474 E221.49414
G1 X129.974 Y131.6 E221.50606
G1 X105.019 Y131.6 E222.75107
G1 X105.048 Y131.618 E222.75277
G1 X105.296 Y131.756 E222.76693
G1 X105.597 Y131.899 E222.78355
G1 X105.85 Y132 E222.79714
G1 X129.144 Y132 E223.95929
G1 X129.095 Y132.019 E223.96191
G1 X128.784 Y132.117 E223.97818
G1 X128.54 Y132.176 E223.9907
G1 X128.17 Y132.239 E224.00943
G1 X127.601 Y132.29 E224.03793
G1 X127.379 Y132.3 E224.04901
G1 X107.449 Y132.296 E225.04333
G1 X107.045 Y132.27 E225.06352
G1 X106.742 Y132.233 E225.07875
G1 X106.447 Y132.176 E225.09374
G1 X106.15 Y132.098 E225.10906
G1 X105.866 Y132.006 E225.12396
G1 F2700 E220.12396
G0 F9000 X105.25 Y132.69
G0 X104.306 Y132.17
G0 X103.48 Y131.48
G0 X102.803 Y130.654
G0 X102.29 Y129.702
G0 X102.037 Y128.905
G0 X101.85 Y127.679
G0 X102.708 Y127.6
G1 F2700 E225.12396
G1 F1800 X132.292 Y127.6 E226.59991
G1 X132.296 Y127.549 E226.60246
G1 X132.296 Y127.2 E226.61987
G1 X102.7 Y127.2 E228.09642
G1 X102.7 Y126.8 E228.11638
G1 X132.296 Y126.8 E229.59293
G1 X132.296 Y126.4 E229.61288
G1 X102.7 Y126.4 E231.08944
G1 X102.7 Y126 E231.10939
G1 X132.296 Y126 E232.58594
G1 X132.296 Y125.6 E232.6059
G1 X102.7 Y125.6 E234.08245
G1 X102.7 Y125.2 E234.1024
G1 X132.296 Y125.2 E235.57895
G1 X132.296 Y124.8 E235.59891
G1 X102.7 Y124.8 E237.07546
G1 X102.7 Y124.4 E237.09542
G1 X132.296 Y124.4 E238.57197
G1 X132.296 Y124 E238.59192
G1 X102.7 Y124 E240.06847
G1 X102.7 Y123.6 E240.08843
G1 X132.296 Y123.6 E241.56498
G1 X132.296 Y123.2 E241.58494
G1 X102.7 Y123.2 E243.06149
G1 X102.7 Y122.8 E243.08144
G1 X132.296 Y122.8 E244.55799
G1 X132.297 Y122.4 E244.57795
G1 X102.701 Y122.4 E246.0545
G1 X102.701 Y122 E246.07446
G1 X132.297 Y122 E247.55101
G1 X132.297 Y121.6 E247.57096
G1 X102.701 Y121.6 E249.04751
G1 X102.701 Y121.2 E249.06747
G1 X132.297 Y121.2 E250.54402
G1 X132.297 Y120.8 E250.56398
G1 X102.701 Y120.8 E252.04053
G1 X102.701 Y120.4 E252.06048
G1 X132.297 Y120.4 E253.53703
G1 X132.297 Y120 E253.55699
G1 X102.701 Y120 E255.03354
G1 X102.701 Y119.6 E255.0535
G1 X132.297 Y119.6 E256.53005
G1 X132.297 Y119.2 E256.55
G1 X102.701 Y119.2 E258.02655
G1 X102.702 Y118.8 E258.04651
G1 X132.297 Y118.8 E259.52301
G1 X132.297 Y118.4 E259.54297
G1 X102.702 Y118.4 E261.01947
G1 X102.702 Y118 E261.03942
G1 X132.297 Y118 E262.51592
G1 X132.297 Y117.6 E262.53588
G1 X102.702 Y117.6 E264.01238
G1 X102.703 Y117.2 E264.03234
G1 X132.298 Y117.2 E265.50884
G1 X132.298 Y116.8 E265.52879
G1 X102.703 Y116.8 E267.00529
G1 X102.703 Y116.4 E267.02525
G1 X132.298 Y116.4 E268.50175
G1 X132.298 Y116 E268.52171
G1 X102.703 Y116 E269.99821
G1 X102.703 Y115.6 E270.01816
G1 X132.298 Y115.6 E271.49466
G1 X132.298 Y115.2 E271.51462
G1 X102.703 Y115.2 E272.99112
G1 X102.703 Y114.8 E273.01108
G1 X132.298 Y114.8 E274.48758
G1 X132.298 Y114.4 E274.50753
G1 X102.703 Y114.4 E275.98403
G1 X102.703 Y114 E276.00399
G1 X132.298 Y114 E277.48049
G1 X132.298 Y113.6 E277.50044
G1 X102.703 Y113.6 E278.97695
G1 X102.703 Y113.2 E278.9969
G1 X132.298 Y113.2 E280.4734
G1 X132.298 Y112.8 E280.49336
G1 X102.703 Y112.8 E281.96986
G1 X102.704 Y112.4 E281.98981
G1 X132.299 Y112.4 E283.46632
G1 X132.299 Y112 E283.48627
G1 X102.704 Y112 E284.96277
G1 X102.704 Y111.6 E284.98273
G1 X132.299 Y111.6 E286.45923
G1 X132.299 Y111.2 E286.47918
G1 X102.704 Y111.2 E287.95569
G1 X102.704 Y110.8 E287.97564
G1 X132.299 Y110.8 E289.45214
G1 X132.299 Y110.4 E289.4721
G1 X102.704 Y110.4 E290.9486
G1 X102.704 Y110 E290.96855
G1 X132.299 Y110 E292.44506
G1 X132.299 Y109.6 E292.46501
G1 X102.704 Y109.6 E293.94151
G1 X102.704 Y109.2 E293.96147
G1 X132.299 Y109.2 E295.43797
G1 X132.299 Y108.8 E295.45792
G1 X102.704 Y108.8 E296.93443
G1 X102.704 Y108.4 E296.95438
G1 X132.299 Y108.4 E298.43088
G1 X132.299 Y108 E298.45084
G1 X102.704 Y108 E299.92734
G1 X102.704 Y107.6 E299.94729
G1 X132.3 Y107.6 E301.42384
G1 X132.29 Y107.397 E301.43398
G1 X132.273 Y107.2 E301.44385
G1 X102.721 Y107.2 E302.9182
G1 X102.73 Y107.046 E302.9259
G1 X102.76 Y106.8 E302.93827
G1 X132.235 Y106.8 E304.40878
G1 X132.178 Y106.464 E304.42578
G1 X132.163 Y106.4 E304.42906
G1 X102.837 Y106.4 E305.89214
G1 X102.901 Y106.153 E305.90487
G1 X102.951 Y106 E305.9129
G1 X132.05 Y106 E307.36466
G1 X132.019 Y105.903 E307.36974
G1 X131.918 Y105.641 E307.38375
G1 X131.899 Y105.6 E307.386
G1 X103.101 Y105.6 E308.82274
G1 X103.244 Y105.297 E308.83945
G1 X103.298 Y105.2 E308.84499
G1 X131.703 Y105.2 E310.26212
G1 X131.651 Y105.105 E310.26753
G1 X131.474 Y104.821 E310.28422
G1 X131.459 Y104.8 E310.28551
G1 X103.54 Y104.8 E311.67839
G1 X103.735 Y104.535 E311.69481
G1 X103.849 Y104.4 E311.70362
G1 X131.153 Y104.4 E313.06583
G1 X131.11 Y104.348 E313.06919
G1 X130.901 Y104.123 E313.08451
G1 X130.771 Y104 E313.09344
G1 X104.231 Y104 E314.41753
G1 X104.349 Y103.89 E314.42558
G1 X104.591 Y103.692 E314.44118
G1 X104.72 Y103.6 E314.44908
G1 X130.283 Y103.6 E315.72442
G1 X130.204 Y103.542 E315.72931
G1 X129.951 Y103.381 E315.74427
G1 X129.703 Y103.243 E315.75843
